X: 07048
T: GWYNETH'S REEL
C: Bob McQuillen 11 Oct 88
B: Bob's Note Book 7 #48
%R: reel
Z: 2020 John Chambers <jc:trillian.mit.edu>
M: C
L: 1/8
K: G	% and Em
GA \
| B2GD B,DGA | B2GD B,DGA | BGBd egdB | dgdB A2GA |
| B2GD B,DGA | B2GD B,DGA | BGBd edge | dBAB G2 :|
|: GF \
| E2GA BdBG | E2GA BGBG | EGBd egdB | GEDB, D2GF |
| E2GA BdBG | EFGA Bdef | gfeg edBG | AGED E2 :|
%%begintext align
%% Gwyneth Tolman
%% is from Nelson, H.H. (where else?!) and comes
%% from a long line of dancers and musicians (her
%% dad is fiddler Harvey Tolman and besides all that, she
%% has pretty red hair!
%%endtext

%%sep 1 1 500

%%sep 1 1 500

